public/home/logo3.svg

<svg width="129" height="25" viewBox="0 0 129 25" fill="none" xmlns="http://www.w3.org/2000/svg">
<path d="M19.5125 22.3804C18.702 22.3804 17.9396 22.0646 17.367 21.4917C16.7933 20.9194 16.4779 20.1577 16.4779 19.3468C16.4779 18.5372 16.7933 17.7755 17.3654 17.2035C17.9387 16.6303 18.701 16.3145 19.5113 16.3145C20.3215 16.3145 21.0832 16.6293 21.6555 17.2022C22.8384 18.3854 22.8384 20.3105 21.6555 21.4933C21.0832 22.0656 20.3221 22.3804 19.5125 22.3804Z" fill="white"/>
<path d="M3.03459 6.20666C2.22405 6.20666 1.46193 5.8909 0.888657 5.31762C0.315765 4.74531 0 3.98357 0 3.17304C0 2.36289 0.314992 1.60173 0.887306 1.03C1.46097 0.456139 2.22348 0.140373 3.03421 0.140373C3.84378 0.140373 4.60551 0.455558 5.17744 1.02806C5.7511 1.60134 6.06687 2.36347 6.06687 3.17362C6.06687 3.98415 5.75129 4.74588 5.17802 5.31916C4.60551 5.89128 3.84416 6.20666 3.03459 6.20666Z" fill="white"/>
<path d="M19.3772 6.11782C18.5661 6.11782 17.8045 5.80206 17.2316 5.22917C16.0494 4.04635 16.0484 2.12224 17.2299 0.940385C17.8032 0.367107 18.5653 0.0509567 19.3764 0.0509567C20.1864 0.0509567 20.9481 0.36672 21.521 0.939419C22.7032 2.12166 22.7032 4.04673 21.521 5.2309C20.9485 5.80245 20.1867 6.11782 19.3772 6.11782Z" fill="white"/>
<path d="M3.11348 22.3804C2.30294 22.3804 1.54082 22.0646 0.966969 21.4917C0.394077 20.919 0.0788899 20.1577 0.0794686 19.3472C0.0794686 18.537 0.395812 17.7755 0.968896 17.2026C1.08888 17.0818 1.22409 16.9713 1.39615 16.8552C1.44785 16.8191 1.49569 16.7904 1.54507 16.7603C1.65733 16.6958 1.76921 16.637 1.87356 16.5892C1.93047 16.5637 1.98872 16.5375 2.05025 16.5141C2.15924 16.4736 2.28095 16.4376 2.42003 16.4046C2.44781 16.3971 2.4723 16.3905 2.49719 16.3834C2.51281 16.3791 2.52786 16.3739 2.54367 16.3702L3.21899 16.3243C3.30464 16.328 3.39626 16.3388 3.49406 16.3515L3.53264 16.3567C3.55559 16.3594 3.58665 16.362 3.6177 16.3637L3.6449 16.3656L3.67576 16.3718H3.70257C3.75195 16.3737 3.80134 16.3745 3.85014 16.3745C5.01405 16.3745 6.16292 15.8788 7.00259 15.0152C7.83858 14.1553 8.29902 12.9985 8.26604 11.8405L8.26507 11.8062L8.25871 11.7703C8.25234 11.7379 8.25061 11.7051 8.24829 11.6725C8.2454 11.6336 8.24212 11.595 8.23729 11.556L8.22977 11.4879C8.22321 11.4297 8.21666 11.3728 8.2128 11.3145L8.26449 10.6371C8.26777 10.6201 8.27395 10.6047 8.27857 10.5881L8.29073 10.5462C8.32198 10.418 8.35515 10.2891 8.40357 10.1645C8.42845 10.0937 8.45237 10.0414 8.47822 9.9878C8.53223 9.86937 8.58817 9.76173 8.65394 9.6514C8.68249 9.60356 8.71027 9.55495 8.74325 9.50808C8.86574 9.32946 8.97723 9.19289 9.09277 9.07716C9.66567 8.50427 10.4272 8.18908 11.2387 8.18908C12.0487 8.18908 12.8114 8.50388 13.3846 9.07619C14.5659 10.259 14.5651 12.1837 13.3819 13.3667C13.2623 13.4867 13.1267 13.5966 12.9543 13.7145C12.904 13.7488 12.8561 13.7774 12.8081 13.8057C12.6991 13.8709 12.5892 13.9288 12.4798 13.9791C12.4206 14.0058 12.3613 14.0332 12.3041 14.0542C12.1879 14.0974 12.0649 14.134 11.9356 14.1632L11.8629 14.1834C11.8463 14.188 11.8303 14.1933 11.8139 14.1975L11.132 14.2459C11.0522 14.2426 10.9685 14.2318 10.8797 14.2205L10.8192 14.2129C10.7989 14.2097 10.7671 14.2073 10.7351 14.2054L10.7111 14.2031L10.6764 14.1963H10.6492C10.5995 14.1946 10.5505 14.194 10.5013 14.194C9.33736 14.194 8.18888 14.6892 7.34979 15.553C6.51341 16.4133 6.05278 17.5712 6.08577 18.7289L6.08673 18.7633L6.0931 18.7976C6.09946 18.8306 6.10081 18.863 6.10351 18.8958C6.10621 18.9349 6.10969 18.9733 6.11432 19.0119C6.11567 19.0349 6.1203 19.0767 6.1255 19.1176C6.13052 19.1641 6.13669 19.2092 6.13669 19.2557V19.2723L6.0877 19.9216C6.08461 19.9353 6.06281 20.0101 6.05664 20.0335C6.02385 20.1735 5.98681 20.2975 5.94534 20.409C5.92277 20.4711 5.89982 20.5246 5.87301 20.5805C5.82035 20.6957 5.76306 20.8062 5.69825 20.9185C5.6697 20.9644 5.63594 21.0184 5.60161 21.0703C5.48876 21.2338 5.37689 21.3714 5.2571 21.4917C4.68556 22.0641 3.92401 22.3798 3.11386 22.3798H3.11348V22.3804Z" fill="white"/>
<path d="M11.3051 22.3803C10.494 22.3803 9.73188 22.0645 9.1586 21.4913C8.58591 20.9186 8.27053 20.1572 8.27014 19.3467C8.26976 18.5371 8.58494 17.7758 9.15726 17.2044C9.27415 17.0869 9.40686 16.9789 9.58818 16.8535C9.63312 16.8231 9.68154 16.7934 9.73227 16.7642C9.84357 16.6975 9.95082 16.6412 10.0621 16.5899C10.1213 16.563 10.1792 16.5364 10.238 16.5142C10.3507 16.4728 10.4734 16.4367 10.6036 16.408C10.6036 16.408 10.7102 16.3769 10.7239 16.3736L11.4099 16.3235C11.4909 16.3271 11.5781 16.3389 11.6695 16.3507L11.7202 16.3574C11.754 16.3607 11.7821 16.3634 11.8105 16.364C11.8217 16.3649 11.8331 16.3649 11.8439 16.3659L11.8655 16.3688L11.894 16.3717C11.9442 16.373 11.9951 16.3744 12.0452 16.3744C13.2069 16.374 14.354 15.879 15.1917 15.0164C16.0277 14.1571 16.4882 12.9988 16.4552 11.841L16.4509 11.6996L16.4384 11.684C16.4378 11.6794 16.4378 11.6738 16.4374 11.6686C16.4357 11.6356 16.4338 11.6024 16.4305 11.569L16.4193 11.4718C16.4131 11.4184 16.4062 11.3657 16.4042 11.3121L16.4513 10.6557C16.455 10.6397 16.4787 10.5585 16.4841 10.534C16.5227 10.3772 16.5564 10.2624 16.595 10.1603C16.6166 10.0994 16.643 10.0435 16.6697 9.98462C16.7181 9.87892 16.775 9.77128 16.8444 9.65285L16.8575 9.63124C16.8809 9.59131 16.9034 9.55196 16.9312 9.51339C17.0554 9.33245 17.1658 9.19627 17.2823 9.07976C17.8558 8.50648 18.6183 8.19072 19.4288 8.19072C20.2388 8.19072 21.0001 8.5059 21.573 9.07841C22.755 10.2607 22.755 12.1863 21.573 13.3699C21.4582 13.4841 21.3215 13.5946 21.1434 13.7175C21.1091 13.741 21.0763 13.7607 21.0435 13.7804L20.9905 13.8134C20.889 13.8735 20.7785 13.9314 20.6708 13.9808C20.6101 14.008 20.553 14.0342 20.4926 14.0568C20.3865 14.0969 20.2694 14.1307 20.1219 14.166C20.0924 14.1729 20.0684 14.1804 20.0447 14.1876C20.0281 14.1918 20.0127 14.1968 19.9967 14.2007L19.3225 14.2472C19.2238 14.2429 19.1171 14.2285 19.0137 14.2148C18.9784 14.2105 18.9512 14.2092 18.9244 14.2076C18.9142 14.2072 18.9039 14.2072 18.8935 14.2057L18.836 14.1997C18.7859 14.1978 18.7361 14.1968 18.6864 14.1968C17.5238 14.1968 16.3769 14.6922 15.538 15.5548C14.7025 16.4151 14.2425 17.5726 14.2764 18.7314L14.2774 18.7653L14.284 18.7987C14.2905 18.833 14.2919 18.8681 14.2944 18.9024C14.2967 18.9381 14.2994 18.973 14.3033 19.0072C14.3056 19.0359 14.3098 19.0726 14.3137 19.1081C14.3198 19.1594 14.326 19.2111 14.3274 19.2622L14.2776 19.9279C14.2739 19.9425 14.2479 20.0322 14.2479 20.0322C14.2155 20.1732 14.1794 20.2967 14.1366 20.4128C14.1163 20.4674 14.0924 20.52 14.0679 20.575L14.0594 20.5943C14.0093 20.7027 13.9528 20.81 13.8897 20.9147C13.8588 20.9664 13.8282 21.0171 13.7957 21.0652C13.6769 21.2376 13.5649 21.3748 13.4453 21.4955C12.8749 22.0655 12.1147 22.3803 11.3051 22.3803Z" fill="white"/>
<path d="M3.11467 14.1906C2.30414 14.1906 1.54221 13.8754 0.969509 13.3029C0.396424 12.7292 0.0806572 11.9675 0.0800785 11.1569C0.0796927 10.3472 0.394301 9.58641 0.967193 9.01409C1.08466 8.89662 1.22143 8.78571 1.39735 8.66438C1.44325 8.63352 1.49495 8.60189 1.54664 8.57083C1.65158 8.50891 1.75863 8.45201 1.87283 8.39935C1.93147 8.37254 1.98972 8.3463 2.05164 8.32315C2.16313 8.28226 2.2862 8.246 2.41447 8.21745L2.49163 8.19585C2.5059 8.1916 2.5196 8.18697 2.53368 8.18369L3.22018 8.13431C3.3093 8.13798 3.40575 8.1507 3.50682 8.1644L3.52804 8.1673C3.56334 8.17096 3.59054 8.1725 3.61831 8.17385C3.62815 8.17424 3.63799 8.17424 3.64783 8.17578L3.67734 8.18099L3.70512 8.18195C3.75604 8.1833 3.80619 8.18427 3.85634 8.18427C5.01756 8.18427 6.1645 7.6895 7.00281 6.82631C7.83843 5.966 8.29848 4.80806 8.26491 3.64994L8.26395 3.61656L8.25739 3.58358C8.25025 3.54693 8.24948 3.5097 8.24697 3.47209C8.24524 3.44161 8.24331 3.41094 8.24003 3.37912L8.22961 3.28556C8.22267 3.23001 8.21553 3.17369 8.21418 3.11736L8.2597 2.48023L8.26395 2.46558V2.45284C8.26761 2.43818 8.2925 2.35369 8.2925 2.35369C8.33107 2.1907 8.36541 2.07284 8.40399 1.96887C8.42559 1.91158 8.4524 1.8543 8.4796 1.79508C8.52898 1.68609 8.58685 1.57576 8.65359 1.4633L8.66401 1.44594C8.69024 1.40215 8.71628 1.35856 8.74579 1.31478C8.86616 1.1404 8.97649 1.00422 9.09204 0.889061C9.66551 0.315783 10.4274 1.52588e-05 11.2386 1.52588e-05C12.0491 1.52588e-05 12.8108 0.315396 13.3841 0.888095C14.5663 2.07091 14.5654 3.99599 13.3827 5.17823C13.2657 5.2957 13.1262 5.40893 12.9555 5.52447C12.909 5.55746 12.8689 5.58079 12.8276 5.60529L12.805 5.61841C12.6937 5.68477 12.5842 5.74244 12.4808 5.78989C12.4196 5.81805 12.3623 5.8439 12.3041 5.8655C12.1903 5.90794 12.0695 5.94363 11.9332 5.97507C11.9046 5.98201 11.8788 5.98954 11.8529 5.99667C11.8373 6.00092 11.8215 6.00593 11.8055 6.00979L11.133 6.05685C11.048 6.05261 10.9569 6.04123 10.8613 6.02908L10.82 6.02387C10.7889 6.02001 10.7602 6.01866 10.7326 6.01673C10.7214 6.01615 10.71 6.01615 10.6988 6.01442L10.6763 6.01153L10.6468 6.00921C10.5966 6.00728 10.5466 6.00632 10.4963 6.00632C9.3347 6.00632 8.18756 6.50109 7.34944 7.36351C6.51344 8.22382 6.05301 9.38213 6.08599 10.5408L6.08696 10.5746L6.09294 10.608C6.10007 10.6417 6.10143 10.677 6.10393 10.7114C6.10625 10.747 6.10914 10.7818 6.11281 10.8174C6.1157 10.8456 6.11975 10.8817 6.12419 10.9176C6.12978 10.9683 6.13634 11.0181 6.1373 11.0684L6.08889 11.7296C6.08522 11.7464 6.07963 11.764 6.07442 11.7819L6.05745 11.8411C6.02369 11.9891 5.988 12.1123 5.9475 12.2217C5.92589 12.279 5.89812 12.3382 5.87034 12.399C5.82057 12.508 5.76425 12.6156 5.69828 12.7256C5.66703 12.7782 5.63771 12.8276 5.60627 12.8741C5.48185 13.0544 5.3746 13.1869 5.25752 13.3031C4.68443 13.8758 3.92367 14.1906 3.11467 14.1906Z" fill="white"/>
<path d="M120.976 19.4904L119.666 14.0309C119.6 13.752 119.534 13.4365 119.468 13.0842C119.402 12.7247 119.336 12.3651 119.27 12.0055C119.211 11.646 119.16 11.3158 119.116 11.0149C119.072 10.714 119.039 10.4792 119.017 10.3104H118.951C118.929 10.4792 118.892 10.7177 118.84 11.0259C118.789 11.3268 118.73 11.6607 118.664 12.0276C118.598 12.3945 118.525 12.7687 118.444 13.1503C118.371 13.5245 118.297 13.8731 118.224 14.196L116.958 19.4904H112.434L109.033 7.01931H113.271L114.283 11.8074C114.357 12.1596 114.43 12.5816 114.504 13.0732C114.584 13.5576 114.654 14.0529 114.713 14.5592C114.779 15.0582 114.823 15.5058 114.845 15.9021H114.911C114.926 15.6012 114.959 15.2563 115.01 14.8674C115.069 14.4711 115.131 14.0786 115.197 13.6896C115.27 13.3007 115.337 12.9595 115.395 12.666C115.454 12.3651 115.494 12.1596 115.516 12.0496L116.672 7.01931H121.427L122.484 12.1156C122.55 12.4018 122.623 12.7687 122.704 13.2163C122.792 13.6566 122.873 14.1189 122.946 14.6032C123.027 15.0802 123.086 15.5132 123.122 15.9021H123.188C123.218 15.4985 123.262 15.0398 123.32 14.5262C123.379 14.0125 123.445 13.5135 123.518 13.0292C123.599 12.5376 123.676 12.1303 123.75 11.8074L124.85 7.01931H129L125.577 19.4904H120.976Z" fill="white"/>
<path d="M107.778 13.2273C107.778 14.2693 107.635 15.1939 107.349 16.0011C107.063 16.8083 106.648 17.4871 106.105 18.0374C105.562 18.5878 104.905 19.0061 104.135 19.2922C103.364 19.5711 102.495 19.7105 101.526 19.7105C100.624 19.7105 99.7945 19.5711 99.0386 19.2922C98.2901 19.0061 97.6371 18.5878 97.0794 18.0374C96.5217 17.4871 96.0887 16.8083 95.7805 16.0011C95.4797 15.1939 95.3292 14.2693 95.3292 13.2273C95.3292 11.8477 95.5787 10.681 96.0777 9.72704C96.584 8.77309 97.3032 8.04662 98.2351 7.54763C99.1744 7.04864 100.293 6.79914 101.592 6.79914C102.788 6.79914 103.852 7.04864 104.784 7.54763C105.716 8.04662 106.446 8.77309 106.975 9.72704C107.51 10.681 107.778 11.8477 107.778 13.2273ZM99.6991 13.2273C99.6991 13.9391 99.7614 14.5408 99.8862 15.0325C100.011 15.5168 100.209 15.8874 100.481 16.1442C100.759 16.3937 101.123 16.5184 101.57 16.5184C102.018 16.5184 102.374 16.3937 102.638 16.1442C102.902 15.8874 103.093 15.5168 103.21 15.0325C103.335 14.5408 103.397 13.9391 103.397 13.2273C103.397 12.5155 103.335 11.9211 103.21 11.4442C103.093 10.9672 102.898 10.6076 102.627 10.3655C102.363 10.1233 102.003 10.0022 101.548 10.0022C100.895 10.0022 100.422 10.2737 100.128 10.8167C99.8422 11.3598 99.6991 12.1633 99.6991 13.2273Z" fill="white"/>
<path d="M92.8856 19.4904H88.5818V2.36327H92.8856V19.4904Z" fill="white"/>
<path d="M80.9648 19.4904H76.683V3.39796H86.1932V6.88722H80.9648V9.95821H85.7859V13.4475H80.9648V19.4904Z" fill="white"/>
<path d="M73.425 7.01927V19.4904H69.1212V7.01927H73.425ZM71.2896 2.00002C71.906 2.00002 72.4417 2.12843 72.8966 2.38527C73.3589 2.6421 73.5901 3.1521 73.5901 3.91526C73.5901 4.65641 73.3589 5.15906 72.8966 5.42324C72.4417 5.68007 71.906 5.80849 71.2896 5.80849C70.6585 5.80849 70.1192 5.68007 69.6715 5.42324C69.2313 5.15906 69.0111 4.65641 69.0111 3.91526C69.0111 3.1521 69.2313 2.6421 69.6715 2.38527C70.1192 2.12843 70.6585 2.00002 71.2896 2.00002Z" fill="white"/>
<path d="M59.6879 24.9059C57.9195 24.9059 56.5546 24.6087 55.5933 24.0143C54.6393 23.4273 54.1624 22.5797 54.1624 21.4717C54.1624 20.7305 54.3935 20.1178 54.8558 19.6335C55.3181 19.1492 56.0116 18.8006 56.9362 18.5878C56.5546 18.4264 56.2207 18.1658 55.9345 17.8063C55.6557 17.4467 55.5162 17.0908 55.5162 16.7386C55.5162 16.3497 55.6226 16.0084 55.8354 15.7149C56.0482 15.4141 56.4922 15.0582 57.1673 14.6472C56.5216 14.361 56.0116 13.9134 55.6373 13.3044C55.2704 12.6953 55.087 11.9542 55.087 11.0809C55.087 10.1783 55.2924 9.40783 55.7034 8.76942C56.1216 8.13101 56.727 7.64302 57.5195 7.30547C58.3194 6.96792 59.2917 6.79914 60.4364 6.79914C60.5905 6.79914 60.8253 6.81382 61.1409 6.84317C61.4564 6.86518 61.7756 6.89454 62.0985 6.93123C62.4214 6.96058 62.6709 6.98993 62.847 7.01928H67.1948V9.09963L65.4887 9.72704C65.6061 9.93985 65.6942 10.171 65.7529 10.4205C65.8116 10.67 65.8409 10.9342 65.8409 11.213C65.8409 12.5559 65.3676 13.5979 64.421 14.339C63.4817 15.0802 62.0765 15.4508 60.2053 15.4508C59.743 15.4508 59.3761 15.4214 59.1046 15.3627C59.0532 15.4581 59.0128 15.5535 58.9835 15.6489C58.9615 15.7369 58.9505 15.8213 58.9505 15.902C58.9505 16.0708 59.0495 16.2066 59.2477 16.3093C59.4531 16.4047 59.6989 16.4707 59.9851 16.5074C60.2787 16.5441 60.5575 16.5625 60.8217 16.5625H62.891C64.2926 16.5625 65.3419 16.856 66.0391 17.443C66.7362 18.0301 67.0847 18.9143 67.0847 20.0958C67.0847 21.6148 66.4353 22.7962 65.1365 23.6401C63.845 24.4839 62.0288 24.9059 59.6879 24.9059ZM59.8971 22.2201C60.4181 22.2201 60.9428 22.1724 61.4711 22.0771C61.9994 21.989 62.4434 21.8422 62.803 21.6368C63.1625 21.4313 63.3423 21.1598 63.3423 20.8222C63.3423 20.5654 63.2359 20.3709 63.0231 20.2389C62.8103 20.1141 62.5351 20.0297 62.1976 19.9857C61.86 19.9417 61.5041 19.9197 61.1299 19.9197H59.4568C59.1486 19.9197 58.8661 19.9674 58.6092 20.0627C58.3597 20.1655 58.1616 20.3012 58.0149 20.47C57.8681 20.6388 57.7947 20.8296 57.7947 21.0424C57.7947 21.3946 57.9855 21.6771 58.3671 21.8899C58.7487 22.1101 59.2587 22.2201 59.8971 22.2201ZM60.4805 13.0182C60.8914 13.0182 61.2069 12.8604 61.4271 12.5449C61.6545 12.2293 61.7683 11.756 61.7683 11.1249C61.7683 10.4792 61.6619 9.99488 61.4491 9.672C61.2363 9.34913 60.9134 9.18769 60.4805 9.18769C60.0328 9.18769 59.6989 9.34913 59.4788 9.672C59.2587 9.98754 59.1486 10.4645 59.1486 11.1029C59.1486 11.7413 59.2587 12.222 59.4788 12.5449C59.6989 12.8604 60.0328 13.0182 60.4805 13.0182Z" fill="white"/>
<path d="M52.4233 7.01927V19.4904H48.1195V7.01927H52.4233ZM50.2879 2.00002C50.9043 2.00002 51.44 2.12843 51.8949 2.38527C52.3572 2.6421 52.5884 3.1521 52.5884 3.91526C52.5884 4.65641 52.3572 5.15906 51.8949 5.42324C51.44 5.68007 50.9043 5.80849 50.2879 5.80849C49.6568 5.80849 49.1175 5.68007 48.6698 5.42324C48.2295 5.15906 48.0094 4.65641 48.0094 3.91526C48.0094 3.1521 48.2295 2.6421 48.6698 2.38527C49.1175 2.12843 49.6568 2.00002 50.2879 2.00002Z" fill="white"/>
<path d="M45.4558 11.103C45.4558 12.9742 45.1072 14.5298 44.4101 15.77C43.713 17.0101 42.7297 17.9421 41.4602 18.5658C40.198 19.1822 38.7121 19.4904 37.0023 19.4904H31.7959V3.39796H37.3655C39.0973 3.39796 40.5649 3.69515 41.7684 4.28954C42.9718 4.88392 43.8854 5.75348 44.5091 6.89823C45.1402 8.04297 45.4558 9.44455 45.4558 11.103ZM40.9428 11.2571C40.9428 10.2811 40.8107 9.4739 40.5466 8.83548C40.2897 8.18973 39.9008 7.70909 39.3798 7.39355C38.8588 7.07067 38.2021 6.90923 37.4095 6.90923H36.1437V15.9241H37.1123C38.4332 15.9241 39.4018 15.5425 40.0182 14.7793C40.6346 14.0088 40.9428 12.8347 40.9428 11.2571Z" fill="white"/>
</svg>

<svg xmlns="http://www.w3.org/2000/svg" width="129" height="25" fill="rgb(100%,100%,100%)" xmlns:v="https://vecta.io/nano"><path d="M19.512 22.379a3.01 3.01 0 0 1-2.145-.887c-.574-.574-.891-1.336-.891-2.145s.316-1.57.891-2.145a3 3 0 0 1 2.145-.887 3.01 3.01 0 0 1 2.145.887c1.184 1.184 1.184 3.105 0 4.289a3.01 3.01 0 0 1-2.145.887zM3.035 6.207c-.812 0-1.574-.316-2.148-.891S0 3.984 0 3.172a3.01 3.01 0 0 1 .887-2.141c.574-.574 1.336-.89 2.148-.89a3.01 3.01 0 0 1 2.141.887c.574.574.891 1.336.891 2.145a3.03 3.03 0 0 1-3.032 3.034zm0 0"/><path d="M19.379 6.117a3.03 3.03 0 0 1-2.148-.887 3.04 3.04 0 0 1 0-4.289C17.805.367 18.567.05 19.376.05a3.02 3.02 0 0 1 2.145.887 3.04 3.04 0 0 1 0 4.293 3.01 3.01 0 0 1-2.141.887zM3.113 22.379c-.809 0-1.574-.312-2.145-.887a3.03 3.03 0 0 1-.891-2.145c0-.809.316-1.57.891-2.145.121-.121.254-.23.426-.348l.152-.094c.109-.066.223-.125.328-.172a1.83 1.83 0 0 1 .176-.074c.109-.043.23-.078.371-.109l.074-.023.047-.012.676-.047c.086.004.176.016.273.027l.039.004a.54.54 0 0 0 .086.008l.027.004.031.004h.027a1.79 1.79 0 0 0 .148.004c1.164 0 2.313-.496 3.152-1.359S8.301 13 8.266 11.84v-.035l-.008-.035-.008-.098-.012-.117-.008-.066-.02-.172.055-.68.012-.047.012-.043a3.23 3.23 0 0 1 .113-.383l.074-.176.176-.336.09-.145a2.82 2.82 0 0 1 .352-.43 3 3 0 0 1 2.145-.891c.809 0 1.574.316 2.145.891 1.184 1.18 1.184 3.105 0 4.289a2.91 2.91 0 0 1-.43.348l-.145.09c-.109.066-.219.125-.328.176l-.176.074a3.36 3.36 0 0 1-.367.109l-.074.02c-.016.004-.031.008-.051.016l-.68.047c-.082-.004-.164-.016-.254-.027l-.059-.004c-.02-.004-.055-.008-.086-.008l-.023-.004-.035-.008h-.027-.148c-1.164 0-2.312.492-3.148 1.359-.84.859-1.297 2.016-1.266 3.176v.031l.008.035.008.098.012.117c.004.023.008.066.012.105l.012.137v.02l-.051.648c0 .012-.023.09-.031.113a2.79 2.79 0 0 1-.109.375l-.074.172a4.55 4.55 0 0 1-.172.336l-.098.152a3.27 3.27 0 0 1-.344.422c-.57.57-1.332.887-2.145.887zm8.192 0c-.812 0-1.574-.312-2.145-.887a3.03 3.03 0 0 1-.891-2.145 3.02 3.02 0 0 1 .887-2.145 3.16 3.16 0 0 1 .434-.352l.141-.086.332-.176.176-.074a2.91 2.91 0 0 1 .367-.109l.117-.031.688-.051c.082.004.168.016.258.027l.051.004.09.008c.012 0 .023 0 .035.004h.023l.027.004.152.004c1.16 0 2.309-.496 3.145-1.359S16.488 13 16.457 11.84l-.008-.141-.012-.016c0-.047-.004-.082-.008-.113l-.012-.098-.016-.16.051-.656c0-.016.027-.098.031-.121l.109-.375.074-.176.176-.332.016-.02.07-.121a3.11 3.11 0 0 1 .352-.434 3.03 3.03 0 0 1 2.148-.887c.809 0 1.57.316 2.145.887 1.18 1.184 1.18 3.109 0 4.293-.117.113-.254.223-.43.348l-.102.063-.051.031a3.58 3.58 0 0 1-.32.168l-.18.078a3.17 3.17 0 0 1-.371.105l-.078.023-.047.012-.672.047c-.102-.004-.207-.02-.309-.031l-.09-.008h-.031l-.059-.008c-.051 0-.102-.004-.148-.004-1.164 0-2.312.496-3.148 1.359s-1.297 2.02-1.262 3.176v.035l.008.031.008.105.012.105a1.06 1.06 0 0 0 .008.102c.008.051.012.102.016.152l-.051.668-.031.102a2.92 2.92 0 0 1-.109.383c-.02.055-.043.105-.07.16l-.008.02-.168.32-.094.152a3.11 3.11 0 0 1-.352.43 3.01 3.01 0 0 1-2.141.883zm-8.192-8.188c-.809 0-1.57-.316-2.145-.887s-.887-1.336-.887-2.148a2.98 2.98 0 0 1 .887-2.141 3.01 3.01 0 0 1 .43-.352c.043-.031.098-.062.148-.094l.324-.172.18-.074c.113-.043.234-.078.363-.105l.078-.023.043-.012.684-.051c.09.004.188.02.289.031l.02.004.09.008h.031l.027.004.031.004h.148a4.43 4.43 0 0 0 3.148-1.355c.839-.863 1.293-2.02 1.262-3.18v-.031l-.008-.035c-.008-.035-.008-.074-.012-.109a.76.76 0 0 0-.008-.094l-.008-.094-.016-.168.043-.637.008-.016v-.012l.027-.098.109-.387.078-.172a2.69 2.69 0 0 1 .172-.332l.012-.02.082-.129c.121-.176.23-.312.348-.426A3 3 0 0 1 11.238 0a3.01 3.01 0 0 1 2.145.887 3.04 3.04 0 0 1 0 4.293c-.117.117-.258.23-.426.344-.047.035-.09.059-.129.082l-.023.012a2.91 2.91 0 0 1-.324.172l-.176.078-.371.109a.61.61 0 0 0-.082.02c-.016.004-.031.012-.047.016l-.672.047-.273-.031-.039-.004-.086-.008H10.7l-.023-.004-.027-.004h-.152A4.43 4.43 0 0 0 7.35 7.364c-.839.863-1.293 2.02-1.262 3.176v.035l.008.035c.008.031.008.066.012.102a.96.96 0 0 0 .008.105l.012.102.012.152-.047.66c-.004.016-.012.035-.016.051l-.016.059-.109.383-.078.176-.172.328-.094.148c-.125.18-.23.313-.348.43a3.03 3.03 0 0 1-2.145.887zm117.864 5.301l-1.312-5.461-.195-.945-.199-1.082-.152-.988-.102-.707h-.066l-.109.719-.176 1-.219 1.121-.223 1.047-1.266 5.297h-4.523L109.031 7.02h4.238l1.012 4.789.223 1.266.211 1.484.129 1.344h.066l.102-1.035.184-1.176.199-1.027.121-.613 1.156-5.031h4.754l1.059 5.098.219 1.098.242 1.387.176 1.301h.066l.133-1.375.199-1.5.23-1.219 1.102-4.789H129l-3.422 12.473zm0 0"/><path d="M107.777 13.227c0 1.043-.141 1.969-.43 2.773s-.699 1.488-1.242 2.039-1.199.969-1.969 1.254c-.773.277-1.641.418-2.609.418-.902 0-1.734-.141-2.488-.418a5.64 5.64 0 0 1-1.961-1.254c-.555-.551-.988-1.23-1.297-2.039-.301-.805-.453-1.73-.453-2.773 0-1.379.25-2.547.75-3.5a5.18 5.18 0 0 1 2.156-2.18c.941-.5 2.059-.746 3.359-.746 1.195 0 2.258.246 3.191.746a5.4 5.4 0 0 1 2.191 2.18c.535.953.801 2.121.801 3.5zm-8.078 0c0 .711.063 1.313.188 1.805.125.484.324.855.594 1.113.277.25.641.375 1.09.375s.805-.125 1.066-.375c.266-.258.457-.629.574-1.113.125-.492.188-1.094.188-1.805s-.062-1.305-.187-1.781c-.117-.477-.312-.836-.582-1.078s-.625-.363-1.082-.363c-.652 0-1.125.27-1.418.813-.285.543-.43 1.348-.43 2.41zm-6.812 6.265h-4.305V2.363h4.305zm-11.922 0h-4.281V3.398h9.508v3.488h-5.227v3.07h4.82v3.492h-4.82zM73.426 7.02v12.473h-4.305V7.02zM71.289 2c.617 0 1.152.129 1.609.387s.691.766.691 1.527c0 .742-.23 1.246-.691 1.508s-.992.387-1.609.387c-.629 0-1.168-.129-1.617-.387-.441-.262-.66-.766-.66-1.508 0-.762.219-1.273.66-1.527.449-.258.988-.387 1.617-.387zM59.688 24.906c-1.77 0-3.133-.297-4.094-.891-.953-.59-1.43-1.437-1.43-2.543 0-.742.23-1.355.691-1.84s1.156-.832 2.082-1.047c-.383-.16-.719-.422-1.004-.781-.277-.359-.418-.715-.418-1.066 0-.387.105-.73.32-1.023.211-.301.656-.656 1.332-1.066-.645-.289-1.156-.734-1.531-1.344-.367-.609-.551-1.352-.551-2.223 0-.902.207-1.676.617-2.312.418-.637 1.023-1.125 1.816-1.465.801-.336 1.773-.504 2.918-.504a7.57 7.57 0 0 1 .703.043l.957.086.75.09h4.348v2.082l-1.707.625a2.78 2.78 0 0 1 .266.695 3.45 3.45 0 0 1 .086.793c0 1.34-.473 2.383-1.418 3.125s-2.344 1.109-4.215 1.109c-.465 0-.832-.027-1.102-.086a1.45 1.45 0 0 0-.121.285.99.99 0 0 0-.035.254c0 .168.102.305.297.406a2.54 2.54 0 0 0 .738.199 7.08 7.08 0 0 0 .836.055h2.07c1.402 0 2.453.293 3.148.879s1.047 1.473 1.047 2.656c0 1.516-.652 2.699-1.949 3.543s-3.109 1.266-5.449 1.266zm.211-2.687a9 9 0 0 0 1.574-.141c.531-.094.973-.234 1.332-.441s.539-.477.539-.816a.65.65 0 0 0-.32-.582c-.215-.125-.488-.207-.824-.254a8.51 8.51 0 0 0-1.07-.066h-1.672a2.46 2.46 0 0 0-.848.145c-.25.102-.449.238-.594.406a.85.85 0 0 0-.223.574c0 .352.191.633.574.848s.891.328 1.531.328zm.582-9.199a1.08 1.08 0 0 0 .945-.477c.23-.312.344-.785.344-1.418 0-.645-.109-1.129-.32-1.453s-.535-.484-.969-.484c-.449 0-.781.16-1 .484-.223.316-.332.793-.332 1.43s.109 1.121.332 1.441.551.477 1 .477zm-8.059-6v12.473h-4.301V7.02zM50.289 2c.617 0 1.152.129 1.605.387.461.254.695.766.695 1.527 0 .742-.234 1.246-.695 1.508-.453.258-.988.387-1.605.387-.633 0-1.172-.129-1.621-.387-.437-.262-.66-.766-.66-1.508 0-.762.223-1.273.66-1.527.449-.258.988-.387 1.621-.387zm-4.832 9.102c0 1.871-.352 3.43-1.047 4.668a6.69 6.69 0 0 1-2.949 2.797c-1.262.617-2.75.926-4.457.926h-5.207V3.398h5.57c1.73 0 3.199.297 4.402.891a6.11 6.11 0 0 1 2.738 2.609c.633 1.145.949 2.547.949 4.203zm-4.516.156c0-.977-.129-1.785-.395-2.422-.258-.645-.645-1.125-1.168-1.441-.52-.324-1.176-.484-1.969-.484h-1.266v9.016h.969c1.32 0 2.289-.383 2.906-1.145.613-.773.922-1.945.922-3.523zm0 0"/></svg>
